dist/assets/images/icons/green-arr-back.svg

<svg width="20" height="20" viewBox="0 0 20 20" fill="none" xmlns="http://www.w3.org/2000/svg">
<path d="M7.97474 15.6829C8.13307 15.6829 8.29141 15.6246 8.41641 15.4996C8.65807 15.2579 8.65807 14.8579 8.41641 14.6163L3.79974 9.99961L8.41641 5.38294C8.65807 5.14128 8.65807 4.74128 8.41641 4.49961C8.17474 4.25794 7.77474 4.25794 7.53307 4.49961L2.47474 9.55794C2.23307 9.79961 2.23307 10.1996 2.47474 10.4413L7.53307 15.4996C7.65807 15.6246 7.81641 15.6829 7.97474 15.6829Z" fill="#479458"/>
<path d="M3.05703 10.625H17.082C17.4237 10.625 17.707 10.3417 17.707 10C17.707 9.65833 17.4237 9.375 17.082 9.375H3.05703C2.71537 9.375 2.43203 9.65833 2.43203 10C2.43203 10.3417 2.71537 10.625 3.05703 10.625Z" fill="#479458"/>
</svg>

<svg width="20" height="20" fill="none" xmlns="http://www.w3.org/2000/svg"><path d="M7.975 15.683a.618.618 0 00.441-.183.629.629 0 000-.884L3.8 10l4.616-4.617a.629.629 0 000-.883.629.629 0 00-.883 0L2.475 9.558a.629.629 0 000 .883L7.533 15.5a.618.618 0 00.442.183z" fill="#479458"/><path d="M3.057 10.625h14.025a.63.63 0 00.625-.625.63.63 0 00-.625-.625H3.057a.63.63 0 00-.625.625.63.63 0 00.625.625z" fill="#479458"/></svg>
